app/component-library/components/Icons/Icon/assets/more-vertical.svg

<svg width="24" height="24" viewBox="0 0 24 24" fill="none" xmlns="http://www.w3.org/2000/svg">
<path d="M10.2812 19.0002C10.2812 20.1002 11.1812 21.0002 12.2812 21.0002C13.3812 21.0002 14.2812 20.1002 14.2812 19.0002C14.2812 17.9002 13.3812 17.0002 12.2812 17.0002C11.1812 17.0002 10.2812 17.9002 10.2812 19.0002Z" fill="currentColor"/>
<path d="M10.2812 5.00024C10.2812 6.10024 11.1812 7.00024 12.2812 7.00024C13.3812 7.00024 14.2812 6.10024 14.2812 5.00024C14.2812 3.90024 13.3812 3.00024 12.2812 3.00024C11.1812 3.00024 10.2812 3.90024 10.2812 5.00024Z" fill="currentColor"/>
<path d="M10.2812 12.0002C10.2812 13.1002 11.1812 14.0002 12.2812 14.0002C13.3812 14.0002 14.2812 13.1002 14.2812 12.0002C14.2812 10.9002 13.3812 10.0002 12.2812 10.0002C11.1812 10.0002 10.2812 10.9002 10.2812 12.0002Z" fill="currentColor"/>
<path d="M10.2812 19.0002C10.2812 20.1002 11.1812 21.0002 12.2812 21.0002C13.3812 21.0002 14.2812 20.1002 14.2812 19.0002C14.2812 17.9002 13.3812 17.0002 12.2812 17.0002C11.1812 17.0002 10.2812 17.9002 10.2812 19.0002Z" stroke="currentColor" stroke-width="1.5"/>
<path d="M10.2812 5.00024C10.2812 6.10024 11.1812 7.00024 12.2812 7.00024C13.3812 7.00024 14.2812 6.10024 14.2812 5.00024C14.2812 3.90024 13.3812 3.00024 12.2812 3.00024C11.1812 3.00024 10.2812 3.90024 10.2812 5.00024Z" stroke="currentColor" stroke-width="1.5"/>
<path d="M10.2812 12.0002C10.2812 13.1002 11.1812 14.0002 12.2812 14.0002C13.3812 14.0002 14.2812 13.1002 14.2812 12.0002C14.2812 10.9002 13.3812 10.0002 12.2812 10.0002C11.1812 10.0002 10.2812 10.9002 10.2812 12.0002Z" stroke="currentColor" stroke-width="1.5"/>
</svg>

<svg xmlns="http://www.w3.org/2000/svg" width="24" height="24" viewBox="0 0 24 24" fill="none"><path d="M10.281 19c0 1.1.9 2 2 2s2-.9 2-2-.9-2-2-2-2 .9-2 2zM10.281 5c0 1.1.9 2 2 2s2-.9 2-2-.9-2-2-2-2 .9-2 2zM10.281 12c0 1.1.9 2 2 2s2-.9 2-2-.9-2-2-2-2 .9-2 2z" fill="currentColor"/><path d="M10.281 19c0 1.1.9 2 2 2s2-.9 2-2-.9-2-2-2-2 .9-2 2zM10.281 5c0 1.1.9 2 2 2s2-.9 2-2-.9-2-2-2-2 .9-2 2zM10.281 12c0 1.1.9 2 2 2s2-.9 2-2-.9-2-2-2-2 .9-2 2z" stroke="currentColor" stroke-width="1.5"/></svg>
